assets/images/avatars/user/custom-avatars/season-f1/helmet-tangerine400.svg

<svg width="52" height="52" viewBox="0 0 52 52" fill="none" xmlns="http://www.w3.org/2000/svg">
<g clip-path="url(#clip0_26_81635)">
<rect width="52" height="52" fill="#FF7101"/>
<path d="M26 52C40.3594 52 52 40.3594 52 26C52 11.6406 40.3594 0 26 0C11.6406 0 0 11.6406 0 26C0 40.3594 11.6406 52 26 52Z" fill="#FF7101"/>
<path d="M26.0001 46.7669C37.4692 46.7669 46.7668 37.4693 46.7668 26.0002C46.7668 14.531 37.4692 5.2334 26.0001 5.2334C14.5309 5.2334 5.23328 14.531 5.23328 26.0002C5.23328 37.4693 14.5309 46.7669 26.0001 46.7669Z" fill="#FF7101" stroke="#002140" stroke-width="0.65" stroke-miterlimit="10"/>
<path d="M21.2098 32.6214C21.8051 35.7261 22.9472 38.7269 24.567 41.4438C22.127 41.9838 19.5311 41.7796 17.1879 40.9143C16.3399 40.6028 15.5266 40.2082 14.7617 39.7271L14.7167 39.6821L14.6959 39.5887L14.7375 39.5783C15.0213 36.9894 15.8831 34.4628 17.2433 32.2407L17.2779 32.085C17.9978 32.2442 18.8008 32.3791 19.7042 32.4761C20.213 32.5314 20.7183 32.5591 21.2098 32.5626V32.6214Z" fill="#FFA75A"/>
<path d="M34.5801 10.2829L34.5109 10.6706C29.513 12.5154 25.3008 16.3953 23.0511 21.2236L23.0372 21.407C21.5905 21.2997 20.168 21.2236 18.8562 21.1751C18.7489 21.1751 18.6381 21.1682 18.5343 21.1647L18.5482 20.7702C18.8008 16.7656 20.5521 12.8719 23.3799 10.0233L23.328 9.90914C24.5774 9.32074 25.8546 8.94694 27.2356 8.74966C29.7761 8.38278 32.3754 8.98501 34.5801 10.2829Z" fill="#FFA75A"/>
<path d="M39.0554 14.8721C40.8379 17.994 41.4089 21.7666 41.0525 25.3662C40.7375 28.5712 39.8791 31.2847 38.8927 34.3513V34.4067C38.4116 34.5278 37.934 34.6767 37.4667 34.8532C35.8608 35.4485 34.3379 36.3276 32.8842 37.2448C32.4342 37.5286 31.9843 37.8194 31.5309 38.1066L31.4271 37.6463C30.0114 35.7773 28.942 33.6487 28.2913 31.3955L27.8794 31.3782C30.4752 30.4368 32.1124 29.2773 32.1124 29.2773C32.1124 29.2773 32.7111 27.4879 32.9223 26.2073C32.9465 26.0654 32.9673 25.9165 32.9811 25.7608C33.1195 24.5113 33.0503 22.9261 33.0503 22.9261C32.2473 22.6804 31.2886 22.4623 30.2364 22.272C30.0634 22.2374 29.8834 22.2062 29.7034 22.1785L29.7346 21.9985C32.0639 18.9077 35.4247 16.2254 39.0554 14.8721Z" fill="#FFA75A"/>
<path d="M21.8951 32.2578L21.902 32.5555C21.6736 32.5659 21.4451 32.5659 21.2098 32.5624C20.7183 32.5589 20.213 32.5312 19.7042 32.4759C18.8008 32.379 17.9978 32.244 17.2779 32.0848C16.5753 31.9325 15.9558 31.7594 15.4089 31.5725L15.4297 31.5171L30.1845 22.5632L30.2364 22.2725C31.2886 22.4628 32.2473 22.6809 33.0503 22.9266C33.0503 22.9266 33.1195 24.5118 32.9811 25.7613L32.808 25.744L21.8951 32.2578Z" fill="#FFD7B0"/>
<path d="M11.8613 29.5334C11.7055 28.2182 11.7124 26.7611 11.792 25.612H11.8163L18.8527 21.2198V21.1748C20.168 21.2233 21.5905 21.2994 23.0372 21.4067C23.8887 21.4725 24.7505 21.5486 25.5985 21.6351L25.5881 21.7321L12.242 29.703L12.1105 29.7688C11.9997 29.6719 11.9201 29.5923 11.8613 29.5334Z" fill="#FFD7B0"/>
<path d="M26.0208 42.2949C24.5671 42.5926 23.193 42.7345 21.7082 42.6653C20.3653 42.6064 18.8943 42.3676 17.6726 41.6996C17.5064 41.6096 17.0184 41.3881 17.188 40.9174C19.5312 41.7792 22.127 41.9834 24.5671 41.4435C24.844 41.3812 25.114 41.312 25.384 41.2324C27.5956 40.5782 29.5788 39.353 31.5309 38.107C31.9843 37.8197 32.4343 37.529 32.8842 37.2451C34.3379 36.3279 35.8608 35.4488 37.4668 34.8535L37.4841 34.9054C37.9132 35.2481 37.7886 35.9818 37.6052 36.1895C37.4218 36.4006 37.1483 36.5079 36.8888 36.6118C32.6212 38.3319 30.5307 41.3708 26.0208 42.2949Z" fill="#002140"/>
<path d="M21.8951 32.258L32.8081 25.7441L32.9811 25.7614C32.9673 25.9172 32.9465 26.066 32.9223 26.2079C32.7112 27.4885 32.1124 29.278 32.1124 29.278C32.1124 29.278 30.4753 30.4374 27.8794 31.3789C26.2215 31.9811 24.1691 32.4933 21.9021 32.5556L21.8951 32.258Z" fill="#002140"/>
<path d="M30.2364 22.2726L30.1845 22.5633L15.4297 31.5173L15.4089 31.5726C14.4502 31.2473 13.7234 30.8873 13.18 30.5551C12.6816 30.2539 12.3354 29.9771 12.1105 29.7694L12.242 29.7036L25.5881 21.7327L25.5985 21.6357C27.028 21.7811 28.4262 21.9611 29.7034 22.1757C29.8834 22.2068 30.0633 22.238 30.2364 22.2726Z" fill="#002140"/>
<path d="M11.8162 25.2697C11.9443 23.778 12.415 22.1166 12.6261 21.3067C12.8338 21.2306 13.3426 21.1787 14.0763 21.1475C15.1562 21.0991 16.7276 21.1025 18.5343 21.1648C18.6381 21.1683 18.7489 21.1717 18.8561 21.1752V21.2202L11.8162 25.6124H11.792C11.7989 25.4947 11.8058 25.3805 11.8162 25.2697Z" fill="#002140"/>
<path d="M14.0764 21.1336C15.0767 17.8074 16.8799 14.7409 19.5 12.4704C20.7945 11.3524 22.0439 10.5148 23.328 9.90914C24.5775 9.32074 25.8546 8.94694 27.2356 8.74966C29.7761 8.38278 32.3754 8.98501 34.5801 10.2829C35.9611 11.0963 37.1898 12.1831 38.1486 13.4741C38.4808 13.924 38.7854 14.3913 39.0554 14.8724C40.8379 17.9943 41.409 21.767 41.0525 25.3665C40.7375 28.5715 39.8791 31.2851 38.8927 34.3516" stroke="#002140" stroke-width="0.65" stroke-linecap="round" stroke-linejoin="round"/>
<path d="M14.7167 39.6821L14.6959 39.5887C13.9518 36.529 13.3738 33.6113 13.1799 30.5586" stroke="#002140" stroke-width="0.65" stroke-linecap="round" stroke-linejoin="round"/>
<path d="M14.7617 39.727C15.5266 40.2081 16.34 40.6026 17.188 40.9141C19.5311 41.7794 22.127 41.9836 24.5671 41.4437C24.844 41.3814 25.114 41.3122 25.3839 41.2326C27.5956 40.5784 29.5788 39.3532 31.5309 38.1072C31.9843 37.8199 32.4342 37.5292 32.8842 37.2453C34.3379 36.3281 35.8608 35.449 37.4667 34.8537C37.934 34.6772 38.4116 34.5284 38.8962 34.4072" stroke="#002140" stroke-width="0.65" stroke-linecap="round" stroke-linejoin="round"/>
<path d="M11.792 25.6124C11.799 25.4947 11.8059 25.3805 11.8163 25.2697C11.9443 23.778 12.415 22.1166 12.6262 21.3067C12.8338 21.2306 13.3426 21.1787 14.0764 21.1475C15.1562 21.0991 16.7276 21.1025 18.5343 21.1648C18.6381 21.1683 18.7489 21.1717 18.8562 21.1752C20.168 21.2236 21.5905 21.2998 23.0372 21.4071C23.8887 21.4729 24.7505 21.549 25.5985 21.6355C27.0279 21.7809 28.4262 21.9609 29.7034 22.1755C29.8834 22.2066 30.0633 22.2378 30.2364 22.2724C31.2886 22.4627 32.2473 22.6808 33.0503 22.9265C33.0503 22.9265 33.1195 24.5117 32.9811 25.7612C32.9672 25.9169 32.9465 26.0658 32.9222 26.2077C32.7111 27.4883 32.1123 29.2777 32.1123 29.2777C32.1123 29.2777 30.4752 30.4372 27.8794 31.3786C26.2215 31.9808 24.169 32.4931 21.902 32.5554C21.6736 32.5658 21.4451 32.5658 21.2098 32.5623C20.7183 32.5588 20.213 32.5312 19.7042 32.4758C18.8008 32.3789 17.9978 32.2439 17.2779 32.0847C16.5753 31.9324 15.9558 31.7593 15.4089 31.5724C14.4502 31.2471 13.7233 30.8871 13.18 30.5549C12.6815 30.2537 12.3354 29.9768 12.1105 29.7692C11.9997 29.6723 11.9201 29.5927 11.8613 29.5338C11.7055 28.2186 11.7124 26.7615 11.792 25.6124Z" stroke="#002140" stroke-width="0.65" stroke-linecap="round" stroke-linejoin="round"/>
<path d="M17.188 40.9173C17.0184 41.388 17.5064 41.6095 17.6726 41.6995C18.8943 42.3675 20.3653 42.6063 21.7082 42.6651C23.193 42.7343 24.5671 42.5924 26.0208 42.2948C30.5307 41.3707 32.6212 38.3318 36.8888 36.6116C37.1483 36.5078 37.4218 36.4005 37.6052 36.1893C37.7886 35.9817 37.9132 35.2479 37.4841 34.9053" stroke="#002140" stroke-width="0.65" stroke-linecap="round" stroke-linejoin="round"/>
<path d="M39.1558 14.834C39.1212 14.8478 39.0901 14.8582 39.0555 14.8721C35.4247 16.2254 32.064 18.9077 29.7346 21.9985" stroke="#002140" stroke-width="0.65" stroke-linecap="round" stroke-linejoin="round"/>
<path d="M34.511 10.6709C29.5131 12.5157 25.3009 16.3956 23.0511 21.2239" stroke="#002140" stroke-width="0.65" stroke-linecap="round" stroke-linejoin="round"/>
<path d="M23.3799 10.0234C20.5522 12.8719 18.8009 16.7657 18.5482 20.7702" stroke="#002140" stroke-width="0.65" stroke-linecap="round" stroke-linejoin="round"/>
<path d="M21.2098 32.6211C21.8052 35.7257 22.9473 38.7265 24.5671 41.4435C24.5844 41.4747 24.6017 41.5024 24.619 41.5335" stroke="#002140" stroke-width="0.65" stroke-linecap="round" stroke-linejoin="round"/>
<path d="M28.2913 31.3955C28.942 33.6487 30.0114 35.7773 31.427 37.6463" stroke="#002140" stroke-width="0.65" stroke-linecap="round" stroke-linejoin="round"/>
<path d="M17.2433 32.2402C15.8831 34.4623 15.0212 36.9889 14.7374 39.5778" stroke="#002140" stroke-width="0.65" stroke-linecap="round" stroke-linejoin="round"/>
</g>
<defs>
<clipPath id="clip0_26_81635">
<rect width="52" height="52" fill="white"/>
</clipPath>
</defs>
</svg>

<svg xmlns="http://www.w3.org/2000/svg" width="52" height="52" fill="none" viewBox="0 0 52 52"><g clip-path="url(#a)"><path fill="#ff7101" d="M0 0h52v52H0z"/><path fill="#ff7101" d="M26 52c14.36 0 26-11.64 26-26S40.36 0 26 0 0 11.64 0 26s11.64 26 26 26"/><path fill="#ff7101" stroke="#002140" stroke-miterlimit="10" stroke-width=".65" d="M26 46.767c11.47 0 20.767-9.298 20.767-20.767S37.469 5.233 26 5.233C14.53 5.233 5.233 14.531 5.233 26c0 11.47 9.298 20.767 20.767 20.767Z"/><path fill="#ffa75a" d="M21.21 32.621a27.3 27.3 0 0 0 3.357 8.823c-2.44.54-5.036.336-7.38-.53a13 13 0 0 1-2.425-1.187l-.045-.045-.021-.093.042-.01a17.8 17.8 0 0 1 2.505-7.338l.035-.156a22 22 0 0 0 2.426.391c.509.055 1.014.083 1.506.087zm13.37-22.338-.07.388c-4.997 1.844-9.21 5.724-11.459 10.553l-.014.183a114 114 0 0 0-4.18-.232c-.108 0-.219-.007-.323-.01l.014-.395a16.93 16.93 0 0 1 4.832-10.747l-.052-.114a13.5 13.5 0 0 1 3.908-1.16c2.54-.366 5.14.236 7.344 1.534m4.475 4.589c1.783 3.122 2.354 6.895 1.998 10.494-.316 3.205-1.174 5.919-2.16 8.985v.056q-.724.181-1.426.446c-1.606.596-3.13 1.475-4.583 2.392q-.674.428-1.353.862l-.104-.46a19.2 19.2 0 0 1-3.136-6.251l-.412-.018c2.596-.941 4.233-2.1 4.233-2.1s.6-1.79.81-3.07q.038-.214.06-.447c.138-1.25.068-2.835.068-2.835-.803-.246-1.761-.464-2.814-.654a12 12 0 0 0-.533-.093l.032-.18c2.329-3.091 5.69-5.774 9.32-7.127"/><path fill="#ffd7b0" d="m21.895 32.258.007.297q-.34.013-.692.007a15 15 0 0 1-1.506-.086 22 22 0 0 1-2.426-.391 17 17 0 0 1-1.87-.512l.022-.056 14.755-8.954.051-.29c1.053.19 2.011.408 2.814.654 0 0 .07 1.585-.069 2.834l-.173-.017zm-10.034-2.725c-.155-1.315-.149-2.772-.069-3.921h.024l7.037-4.392v-.045c1.315.048 2.737.124 4.184.232.852.066 1.713.142 2.562.228l-.01.097-13.347 7.971-.132.066a5 5 0 0 1-.249-.236"/><path fill="#002140" d="M26.02 42.295c-1.453.298-2.827.44-4.312.37-1.343-.059-2.814-.297-4.035-.965-.167-.09-.655-.312-.485-.783 2.343.862 4.939 1.066 7.38.526q.413-.092.816-.21c2.212-.655 4.195-1.88 6.147-3.126.453-.287.903-.578 1.353-.862 1.454-.917 2.977-1.796 4.583-2.392l.017.052c.43.343.305 1.077.121 1.285-.183.21-.457.318-.716.422-4.268 1.72-6.358 4.759-10.868 5.683m-4.126-10.037 10.913-6.514.173.017a6 6 0 0 1-.059.447c-.21 1.28-.81 3.07-.81 3.07s-1.637 1.16-4.233 2.1c-1.658.603-3.71 1.115-5.977 1.178zm8.341-9.985-.052.29-14.754 8.954-.021.056a11 11 0 0 1-2.229-1.018 6.6 6.6 0 0 1-1.07-.786l.132-.065 13.346-7.971.01-.097c1.43.145 2.828.325 4.105.54q.272.045.533.097m-18.42 2.997c.128-1.492.599-3.153.81-3.963.208-.076.717-.128 1.45-.16 1.08-.048 2.652-.044 4.458.018l.322.01v.045l-7.04 4.392h-.024a10 10 0 0 1 .024-.342"/><path stroke="#002140" stroke-linecap="round" stroke-linejoin="round" stroke-width=".65" d="M14.076 21.134c1-3.327 2.804-6.393 5.424-8.664 1.294-1.118 2.544-1.955 3.828-2.56a13.5 13.5 0 0 1 3.908-1.16c2.54-.367 5.14.235 7.344 1.533 1.381.813 2.61 1.9 3.569 3.191q.5.676.906 1.398c1.783 3.122 2.354 6.895 1.998 10.494-.316 3.206-1.174 5.92-2.16 8.986m-24.176 5.33-.021-.093c-.744-3.06-1.322-5.978-1.516-9.03m1.582 9.168c.765.481 1.578.876 2.426 1.187 2.343.865 4.939 1.07 7.38.53q.413-.093.816-.211c2.212-.655 4.195-1.88 6.147-3.126.453-.287.903-.578 1.353-.862 1.454-.917 2.977-1.796 4.583-2.391q.701-.266 1.43-.447"/><path stroke="#002140" stroke-linecap="round" stroke-linejoin="round" stroke-width=".65" d="M11.792 25.612q.01-.176.024-.342c.128-1.492.599-3.153.81-3.963.208-.076.717-.128 1.45-.16 1.08-.048 2.652-.044 4.458.018l.322.01c1.312.049 2.734.125 4.181.232.852.066 1.713.142 2.562.229 1.429.145 2.827.325 4.104.54q.272.045.533.096a25 25 0 0 1 2.814.655s.07 1.585-.069 2.834a6 6 0 0 1-.059.447c-.21 1.28-.81 3.07-.81 3.07s-1.637 1.16-4.233 2.1c-1.658.603-3.71 1.115-5.977 1.177q-.34.013-.692.007a15 15 0 0 1-1.506-.086 22 22 0 0 1-2.426-.391 17 17 0 0 1-1.87-.513 11 11 0 0 1-2.228-1.017 6.6 6.6 0 0 1-1.319-1.021c-.155-1.315-.149-2.772-.069-3.922m5.396 15.305c-.17.471.318.692.485.782 1.221.669 2.692.907 4.035.966 1.485.07 2.86-.073 4.313-.37 4.51-.924 6.6-3.963 10.868-5.683.26-.104.533-.212.716-.423.184-.207.308-.941-.12-1.284m1.671-20.071-.1.038c-3.631 1.353-6.992 4.036-9.321 7.127m4.776-11.329c-4.998 1.846-9.21 5.726-11.46 10.554m.329-11.201a16.93 16.93 0 0 0-4.832 10.747"/><path stroke="#002140" stroke-linecap="round" stroke-linejoin="round" stroke-width=".65" d="M21.21 32.621a27.3 27.3 0 0 0 3.357 8.822l.052.09m3.672-10.137a19.2 19.2 0 0 0 3.136 6.25M17.243 32.24a17.8 17.8 0 0 0-2.506 7.338"/></g><defs><clipPath id="a"><path fill="#fff" d="M0 0h52v52H0z"/></clipPath></defs></svg>
